common/src/main/resources/glyphs/plugins/datagrip/expui/sortedSetKey.svg

<svg xmlns="http://www.w3.org/2000/svg" width="16" height="16" data-big="true" viewBox="0 0 24 24"><path fill="#4DB6AC" d="m9.25 5 3.25-3.25L15.75 5zm6.5 14-3.25 3.25L9.25 19zm-6.86-4.7H6L5.28 17H2.91L6 7h3l3.13 10H9.67zm-2.56-1.62h2.23l-.63-2.12-.26-.97-.25-.96h-.03l-.22.97-.24.98zM13.05 17v-1.26l4.75-6.77v-.06h-4.3V7h7.23v1.34L16.09 15v.08h4.71V17z"/><path fill="#FDD835" d="M14.25 19.5a1.5 1.5 0 0 1-1.5-1.5 1.5 1.5 0 0 1 1.5-1.5 1.5 1.5 0 0 1 1.5 1.5 1.5 1.5 0 0 1-1.5 1.5m4.238-3a4.49 4.49 0 0 0-4.238-3 4.5 4.5 0 0 0-4.5 4.5 4.5 4.5 0 0 0 4.5 4.5 4.49 4.49 0 0 0 4.238-3h3.262v3h3v-3h1.5v-3z"/></svg>

<!--
  - The MIT License (MIT)
  -
  - Copyright (c) 2015-2024 Elior "Mallowigi" Boukhobza
  -
  - Permission is hereby granted, free of charge, to any person obtaining a copy
  - of this software and associated documentation files (the "Software"), to deal
  - in the Software without restriction, including without limitation the rights
  - to use, copy, modify, merge, publish, distribute, sublicense, and/or sell
  - copies of the Software, and to permit persons to whom the Software is
  - furnished to do so, subject to the following conditions:
  -
  - The above copyright notice and this permission notice shall be included in all
  - copies or substantial portions of the Software.
  -
  - THE SOFTWARE IS PROVIDED "AS IS", WITHOUT WARRANTY OF ANY KIND, EXPRESS OR
  - IMPLIED, INCLUDING BUT NOT LIMITED TO THE WARRANTIES OF MERCHANTABILITY,
  - FITNESS FOR A PARTICULAR PURPOSE AND NONINFRINGEMENT. IN NO EVENT SHALL THE
  - AUTHORS OR COPYRIGHT HOLDERS BE LIABLE FOR ANY CLAIM, DAMAGES OR OTHER
  - LIABILITY, WHETHER IN AN ACTION OF CONTRACT, TORT OR OTHERWISE, ARISING FROM,
  - OUT OF OR IN CONNECTION WITH THE SOFTWARE OR THE USE OR OTHER DEALINGS IN THE
  - SOFTWARE.
  -->


<svg data-big="true" xmlns="http://www.w3.org/2000/svg" version="1.1" width="16px" height="16px" viewBox="0 0 24 24">
  <path fill="#4DB6AC"
        d="M9.25,5L12.5,1.75L15.75,5H9.25M15.75,19L12.5,22.25L9.25,19H15.75M8.89,14.3H6L5.28,17H2.91L6,7H9L12.13,17H9.67L8.89,14.3M6.33,12.68H8.56L7.93,10.56L7.67,9.59L7.42,8.63H7.39L7.17,9.6L6.93,10.58L6.33,12.68M13.05,17V15.74L17.8,8.97V8.91H13.5V7H20.73V8.34L16.09,15V15.08H20.8V17H13.05Z"/>
  <path transform="scale(.75) translate(12 12)" fill="#FDD835"
        d="M7,14A2,2 0 0,1 5,12A2,2 0 0,1 7,10A2,2 0 0,1 9,12A2,2 0 0,1 7,14M12.65,10C11.83,7.67 9.61,6 7,6A6,6 0 0,0 1,12A6,6 0 0,0 7,18C9.61,18 11.83,16.33 12.65,14H17V18H21V14H23V10H12.65Z"/>
</svg>
